**kern	**kern	**dynam
*part1	*part1	*part1
*staff2	*staff1	*
*I"Piano	*	*
*clefF4	*clefG2	*
*k[b-e-a-]	*k[b-e-a-]	*
=1	=1	=1
*^	*	*
8BB-L	4.EE-	8e-L 8a- 8cc	<
8AA-	.	8f 8b- 8dd	.
8GGJ	.	8gJ 8b- 8ee-	.
=	=	=	=
8FFL	[4.EE-	8a-L 8cc 8ff	[ >
8GG	.	8g 8b- 8ee-	.
8AA-J	.	8fJ 8b- 8dd	.
=	=	=	=
8BB-L	4.EE-_	8e-L 8a- 8cc	.
8C	.	8e- 8g 8b-	]
8DJ	.	8B-J 8f 8a-	.
=	=	=	=
*	*	*^	*
4E-	4.EE-]	8gL	4B-	.
.	.	8a-	.	.
8G	.	8gJ	8e-	.
*v	*v	*	*	*
=	=	=	=
4BB- 4A-	8fL	4B- 4e-	.
.	8g	.	.
8BBB- 8BB-	8fJ	8A- 8d	.
*	*v	*v	*
=	=	=
*^	*	*
8E-L	4.EE-	4.G 4.B- 4.e-	.
8BB-	.	.	.
8E-J	.	.	.
=	=	=	=
8BB-L	[4.EE-	8GL 8B- 8e-	mf
8E-	.	8c 8f 8a-	.
8BB-J	.	8A-J 8d 8f	.
*v	*v	*	*
=	=	=
*-	*-	*-
!!!system-decoration: {(s1,s2)}
